X: 10682
T: SAW YOU JOHNNIE COMING
Q: "slow with Express:"
%R: air, march
B: "Edinburgh Repository of Music" v.1 p.68 #2
F: http://digital.nls.uk/special-collections-of-printed-music/pageturner.cfm?id=87776133
Z: 2015 John Chambers <jc:trillian.mit.edu>
N: The last two notes in bar 14 (g, a) are a bit smaller than the other notes, with up stems.
M: 2/4
L: 1/8
K: F
[|\
F2GA | cAAf | F2G>A | cAz2 |\
F2G>A | cAAf | F2G>A | cA zc |\
f>edc |
d>c Ac | f>edc | dA ze |\
f>edc | d>e Hf2 ga3 | F2G>A | cAAf |\
F2G>A | cAz |]
